X: 9
T: Earl Cornwallise's March
%R: march
B: Stewart "A Select Collection of Airs, Jigs, Marches and Reels", ca.1784, p.5 #9
F: http://imslp.org/wiki/A_Select_Collection_of_Airs,_Jigs,_Marches_and_Reels_%28Various%29
Z: 2017 John Chambers <jc:trillian.mit.edu>
M: C
L: 1/8
K: G
D2 |\
G2G>G G2d>c | B2b>a g2d2 |\
e3(f/g/) edcB | A2A>A A2D2 |\
G2G>G G2d>c | B2b>a g2a2 |\
bgec B2TA2 |
G2G>G G2 :: d'c' |\
b>aga b2(d>c) | B>cd>e d2(gf) |\
(fe)(c'b) (ba)(ag) | gfef d2zd |\
e>fec (c'>ba)>c |
d>edB (b>ag)d |\
(gf)(ba) gfgd | edcB A2 (ab/c'/) |\
bgfa d2AB/c/ | BGFA D2 (ab/c'/) |\
bgec B2TA2 | G2G>G G2 :|

%%sep 1 1 500
%%sep 1 1 500

